X: 12227
T: Fair Play To You Mary
R: jig
M: 6/8
K: Gmajor
|:gab age|gag edB|deg edB|GAB AGE|
gab age|gag edB|deg edB|dgf g3:|
|:DGG G/G/G G|DGG GFG|G/G/G G EDB,|
bag edB|DGG G/G/G G|FGG DB,D|gag edB|dgf g3:|

